X:1
T:Ilunabarra
T:Ignacio Morocoa (Tolosa 1902 - 1979) 
T:©  Peio G. Z.  2020  -  ARTURO KANPION ABESBATZA
T:©  Peio G. Z.  2020  -  ARTURO KANPION ABESBATZA
Z:©  Peio G. Z.  2020  -  ARTURO KANPION ABESBATZA
%%score [ 1 2 3 4 ]
L:1/8
Q:1/4=62
M:3/4
K:F
V:1 treble nm="Sop." snm="S."
V:2 treble nm="Kon." snm="K."
V:3 treble-8 nm="Ten." snm="T."
V:4 bass nm="Bax." snm="B."
V:1
"^Lento"!f! A2 G2!>(! F F | !fermata!E6!>)! |:!mf! D2 F A G E | F>E!<(! D4!<)! |!f! d2 ^c =c B A | %5
w: I- lun- a- ba-|rra.|E- guz- ki- a has-|ten _ da|je- txi- tzen je- txi-|
 G6 |!mf!!<(! G2 G G G G!<)! | B3 G E2 |!>(! F2 F E F3/2 E/!>)! |1 A6 :|2 A6 |:!f! c2 c A A F | %12
w: tzen,|dis- di- ze- ra e-|de _ rra|za- io- loa gu- txi-|tzen.|tzen.|Di- a- man- tez- ko|
 (G3/2 D/) D2 z2 | C E G B !fermata!d3/2 c/ | A4 z2 |!mf! E2!<(! E F G3/2 E/!<)! | %16
w: prin _ tzak|za- iz- ka ne an gal-|tzen|u- rres- ko bo- la|
!>(! D3/2 F/ A4!>)! |"^cresc" E2 E F G B | A2- A3!f! A | d3 A B c | B A G3!p! B | %21
w: ba _ ten|i- txu- ran da jaz-|ten _ e-|ta gel- di gel-|di _ da i-|
 A3"^rit...." G F E |1 D6 :|2 D2 z2 z2 |:!mf! z"^animado" A A z"^cresc" z2 | z A A z z2 | %26
w: tsas- pe- ra sar-|tzen.|tzen.|gel- di|gel- di|
 z A A z z2 | z A A!f! d c"^rit...." B | A3 E F3/2 E/ |1 D3 z z2 :|2 D3"^rit...." d c B || %31
w: gel- di|gel- di i- tsas- pe-|ra sar- tzen sar-|tzen.|tzen, i- tsas- pe-|
 A3 A!ff! !fermata!f3/2 e/ | !fermata!d6 |] %33
w: ra sar- tzen sar-|tzen.|
V:2
!f! F2 D2!>(! D D | !fermata!^C6!>)! |:!mf! D2 F2 E2 | D3!<(! D D D!<)! |!f! _G2 A A G G | G6 | %6
w: I- lun- a- ba-|rra.|E- guz- ki-|a has- ten da|je- txi- tzen je- txi-|tzen,|
!mf!!<(! (^C D) E F E E!<)! | E4 E2 |!>(! D2 D D D3/2 D/!>)! |1 E6 :|2 E6 |:!f! A2 A F F F | %12
w: dis- \- di- ze- ra e-|de- rra|za- io- loa gu- txi-|tzen.|tzen.|Di- a- man- tez- ko|
 D2 D2 z2 | C C C [DG] !fermata![GB]3/2 A/ | F4 z2 |!mf! ^C2!<(! C D E3/2 C/!<)! |!>(! D2 F4!>)! | %17
w: prin- tzak|za- iz- ka ne an gal-|tzen|u- rres- ko bo- la|ba- ten|
"^cresc" ^C2 C D E G | F2- F3!f! F | ^F3 F G A | G2 D3!p! G | F3"^rit...." E D ^C |1 D6 :|2 %23
w: i- txu- ran da jaz-|ten _ e-|ta gel- di gel-|di da i-|tsas- pe- ra sar-|tzen.|
!mf! D2 z D ^C D |: E z z E"^cresc" D E | F z z F E F | G z z E F G | A3!f! B A"^rit...." G | %28
w: tzen. e- ta gel-|i e- ta gel-|di e- ta gel-|di gel- di sar-|tzen i- tsas- pe-|
 F3 D D3/2 ^C/ |1 D3 D ^C D :|2 D3"^rit...." B A G || F3 A!ff! !fermata!A3/2 [A^c]/ | %32
w: ra sar- tzen sar-|tzen e- ta gel|tzen, i- tsas- pe-|ra sar- tzen sar-|
 !fermata![Ad]6 |] %33
w: tzen|
V:3
!f! d2 B2!>(! B B | !fermata!A6!>)! |:!mf! A2 A2 ^c2 | d3!<(! d d d!<)! |!f! d2 ^f f d d | B6 | %6
w: I- lun- a- ba-|rra.|E- guz- ki-|a has- ten da|je- txi- tzen je- txi-|tzen,|
!mf!!<(! (A =B) ^c d e c!<)! | ^c4 c2 |!>(! d2 d d d3/2 d/!>)! |1 ^c6 :|2 _d6 |:!f! f2 f f c c | %12
w: dis di di- ze- ra e-|de- rra|za- io- loa gu- txi-|tzen.|tzen.|Di- a- man- tez- ko|
 d2 B2 z2 | c c c c !fermata!e3/2 c/ | c4 z2 |!mf! A2!<(! A A ^c3/2 A/!<)! |!>(! d2 d4!>)! | %17
w: prin- tzak|za- iz- ka ne an gal-|tzen|u- rres- ko bo- la|ba- ten|
"^cresc" ^c2 c c c c | d2- d3!f! d | d3 d d d | d2 d3!p! d | A3"^rit...." A A A |1 [FA]6 :|2 %23
w: i- txu- ran da jaz-|ten _ e-|ta gel- di gel-|di da i-|tsas- pe- ra sar-|tzen.|
 [FA]2 z2 z2 |: z2 z!mf! ^c"^cresc" =B c | d z z d ^c d | e z z ^c d e | f3!f! d d"^rit...." d | %28
w: |e- ta gel-|di e- ta gel-|di gel- di sar-|tzen i- tsas- pe-|
 d3 A A3/2 A/ |1 F3 z z2 :|2 F3"^rit...." d d d || d3 d!ff! !fermata!f3/2 [^ce]/ | %32
w: ra sar- tzen sar-|tzen|tzen, i- tsas- pe-|ra sar- tzen sar-|
 !fermata![Ad]6 |] %33
w: tzen|
V:4
!f! D2 B,2!>(! F, G, | !fermata!A,6!>)! |:!mf! D,2 D,2 A,2 | D,3!<(! D, F, A,!<)! |!f! D2 D D D D | %5
w: I- lun- a- ba-|rra.|E- guz- ki-|a has- ten da|E- guz- ki- a has-|
 G, (D, G, D, G,2) |!mf!!<(! A,2 A, A, A, A,!<)! | A,4 A,2 |!>(! B,2 B, B, B,3/2 B,/!>)! |1 %9
w: tzen je _ txi- tzen,|dis- di- ze- ra e-|de- rra|za- io- la gu- txi-|
 A,3 G, F, E, :|2 A,6 |:!f! F,2 A, C F, A, | B,2 B, (B, C) D | C C C C !fermata!C3/2 C/ | %14
w: tzen gu- txi- tzen|tzen.|Di- a- man- tez- ko|prin- tzak prin- * tzak|za- iz- ka ne an gal-|
 F, C A, C F,2 |!mf! A,2!<(! A, A, A,3/2 A,/!<)! |!>(! D2 D,4!>)! |"^cresc" A,2 A, A, A, A, | %18
w: tzen gal- tzen gal- tzen|u- rres- ko bo- la|ba- ten|i- txu- ran da jaz-|
 D2- D3!f! D | D3 C B, A, | G,2 G,3!p! G, | A,3"^rit...." A, A, G, |1 [D,A,]6 :|2 [D,A,]2 z2 z2 |: %24
w: ten _ e-|ta gel- di gel-|di da i-|tsas- pe- ra sar-|tzen.|tzen.|
!mf! z A, A, z"^cresc" z2 | z A, A, z z2 | z A, A, z z2 | z A, A,!f! G, A,"^rit...." B, | %28
w: gel- di|gel- di|gel- di|gel- di i- tsas- pe-|
 A,3 A, A,3/2 G,/ |1 D,3 z z2 :|2 D,3"^rit...." G, A, B, || A,3 A,!ff! !fermata!A,3/2 G,/ | %32
w: ra sar- tzen sar-|tzen.|tzen, i- tsas- pe-|ra sar- tzen sar-|
 !fermata![D,F,]6 |] %33
w: tzen.|

